!!!OTL: Elend hat mich umfangen
!!!ARE: Europa, Mitteleuropa, Deutschland
!!!SCT: A0211
!!!YEM: Copyright 1995, estate of Helmut Schaffrath.
**kern
*ICvox
*Ivox
*M3/1
*k[]
*a:
{1a
=1
0a
1a
=2
0a
1b
=3
0ccn
2.b
4a
=4
0gn}
{1a
=5
0ccn
2.b
4a
=6
0a
1g#
=7
0a}
{1a
=8
0a
1a
=9
0a
1b
=10
0ccn
2.b
4a
=11
0gn}
{1a
=12
0ccn
2.b
4a
=13
0a
1g#
=14
0a}
{1ccn
=15
0b
1a
=16
0gn
1fn
=17
0e
1e
=18
0e}
{1ccn
=19
0b
1a
=20
0gn
1fn
=21
0e
1e
=22
0e}
{1e
=23
0a
1a
=24
0a
1b
=25
0ccn
2.b
4a
=26
0gn}
{1a
=27
0ccn
2.b
4a
=28
0a
1g#
=29
0a}
==
!!!AGN: Romanze, Ballade, Lied
!! Dresdner Cod. M. 53
!!!ONB: ESAC (Essen Associative Code) Database: ALTDEU
!!!AMT: simple triple
!!!AIN: vox
!!!EED: Helmut Schaffrath
!!!EEV: 1.0
*-
